X:191
T:Fuga
C:J.Pachelbel
L:1/8
Q:1/4=120
M:4/4
I:linebreak $
K:C
!mf! CDEF GDGF | E4 D4- | DG, C2 B,FED | E4 z4 | G!p!ABc dAdc | B4 A4 | Ggde f4 | e4 d4 | %8
 c z z2 z4 |] %9
